img/Tumblr.svg

<svg width="248" height="170" viewBox="0 0 248 170" fill="none" xmlns="http://www.w3.org/2000/svg">
<path d="M45.9236 146.81L45.2022 144.265H42.5563H34.3112C16.7234 144.265 3.5 132.309 3.5 118.735V50.6471C3.5 37.0732 16.7234 25.1177 34.3112 25.1177H42.7399H45.3162L46.0818 22.6577C49.4148 11.9475 61.2316 3.5 75.9226 3.5L172.077 3.5C186.768 3.5 198.585 11.9475 201.918 22.6577L202.684 25.1177H205.26H213.689C231.277 25.1177 244.5 37.0732 244.5 50.6471V118.735C244.5 132.309 231.277 144.265 213.689 144.265H205.444H202.798L202.076 146.81C198.97 157.771 187.017 166.5 172.077 166.5H75.9226C60.9829 166.5 49.0303 157.771 45.9236 146.81Z" fill="#7BB361" stroke="#F1C75F" stroke-width="7"/>
<path d="M171.739 79.1455L169.419 82.9907C169.322 82.6652 169.196 82.299 169.041 81.8921C168.886 81.4852 168.695 81.1068 168.467 80.7568C168.239 80.3988 167.967 80.1017 167.649 79.8657C167.332 79.6216 166.966 79.4995 166.551 79.4995C166.168 79.4995 165.835 79.5972 165.55 79.7925C165.273 79.9878 165.037 80.2441 164.842 80.5615C164.646 80.8708 164.484 81.2248 164.354 81.6235C164.231 82.0142 164.134 82.4129 164.061 82.8198C163.995 83.2186 163.951 83.6051 163.926 83.9795C163.902 84.3457 163.89 84.6631 163.89 84.9316V91.9995H159.751V77.9004H161.338L163.011 81.1841C163.239 80.6551 163.499 80.1709 163.792 79.7314C164.085 79.2839 164.423 78.9014 164.805 78.584C165.188 78.2585 165.619 78.0062 166.099 77.8271C166.587 77.6481 167.137 77.5586 167.747 77.5586C168.064 77.5586 168.418 77.5871 168.809 77.644C169.2 77.6929 169.582 77.7824 169.957 77.9126C170.331 78.0347 170.677 78.1974 170.994 78.4009C171.312 78.6043 171.56 78.8525 171.739 79.1455Z" fill="#FDFDFD"/>
<path d="M156.309 91.9995H152.183V71.4062H153.77L156.309 75.6909V91.9995Z" fill="#FDFDFD"/>
<path d="M149.522 84.9688C149.522 85.9941 149.367 86.9544 149.058 87.8496C148.749 88.7448 148.301 89.526 147.715 90.1934C147.129 90.8525 146.413 91.3734 145.567 91.7559C144.721 92.1383 143.76 92.3296 142.686 92.3296C142.141 92.3296 141.62 92.2482 141.124 92.0854C140.635 91.9227 140.184 91.6948 139.769 91.4019C139.362 91.1007 139 90.7427 138.682 90.3276C138.373 89.9126 138.129 89.4487 137.95 88.936L136.119 92H134.532V72.7129H138.658V79.5854C139.146 78.91 139.732 78.4136 140.416 78.0962C141.107 77.7788 141.864 77.6201 142.686 77.6201C143.76 77.6201 144.721 77.8114 145.567 78.1938C146.413 78.5763 147.129 79.0972 147.715 79.7563C148.301 80.4155 148.749 81.1927 149.058 82.0879C149.367 82.9831 149.522 83.9434 149.522 84.9688ZM145.335 84.9688C145.335 84.6107 145.315 84.2323 145.274 83.8335C145.241 83.4266 145.18 83.0238 145.091 82.625C145.001 82.2262 144.875 81.8438 144.712 81.4775C144.558 81.1113 144.358 80.7899 144.114 80.5132C143.87 80.2284 143.577 80.0046 143.235 79.8418C142.894 79.6709 142.491 79.5854 142.027 79.5854C141.604 79.5854 141.225 79.675 140.892 79.854C140.566 80.0249 140.277 80.2568 140.025 80.5498C139.781 80.8428 139.573 81.1764 139.402 81.5508C139.231 81.9251 139.093 82.3117 138.987 82.7104C138.882 83.1092 138.804 83.5039 138.755 83.8945C138.707 84.2852 138.682 84.6432 138.682 84.9688C138.682 85.335 138.698 85.7215 138.731 86.1284C138.772 86.5353 138.837 86.9422 138.926 87.3491C139.016 87.7479 139.138 88.1304 139.292 88.4966C139.455 88.8547 139.659 89.1761 139.903 89.4609C140.155 89.7376 140.452 89.9574 140.794 90.1201C141.144 90.2829 141.555 90.3643 142.027 90.3643C142.483 90.3643 142.881 90.2829 143.223 90.1201C143.573 89.9492 143.87 89.7254 144.114 89.4487C144.358 89.1639 144.558 88.8384 144.712 88.4722C144.875 88.0978 145.001 87.7113 145.091 87.3125C145.18 86.9137 145.241 86.515 145.274 86.1162C145.315 85.7093 145.335 85.3268 145.335 84.9688Z" fill="#FDFDFD"/>
<path d="M131.785 83.772C131.785 84.7404 131.671 85.7495 131.443 86.7993C131.215 87.8491 130.894 88.8745 130.479 89.8755C130.072 90.8683 129.58 91.8083 129.002 92.6953C128.424 93.5824 127.781 94.3514 127.073 95.0024L125.523 94.1602C125.759 93.737 125.975 93.2609 126.17 92.7319C126.365 92.203 126.544 91.6455 126.707 91.0596C126.87 90.4736 127.012 89.8714 127.134 89.2529C127.256 88.6344 127.358 88.02 127.439 87.4097C127.529 86.7912 127.594 86.193 127.635 85.6152C127.675 85.0374 127.696 84.4963 127.696 83.9917C127.696 83.7069 127.688 83.3976 127.671 83.064C127.655 82.7303 127.618 82.3966 127.562 82.063C127.513 81.7293 127.435 81.4119 127.33 81.1108C127.224 80.8016 127.077 80.529 126.89 80.293C126.711 80.0488 126.483 79.8576 126.207 79.7192C125.938 79.5728 125.612 79.4995 125.23 79.4995C124.856 79.4995 124.534 79.6012 124.266 79.8047C124.005 80 123.781 80.2563 123.594 80.5737C123.407 80.8911 123.257 81.2492 123.143 81.6479C123.037 82.0467 122.955 82.4495 122.898 82.8564C122.841 83.2552 122.801 83.6377 122.776 84.0039C122.76 84.3701 122.752 84.6794 122.752 84.9316V91.9995H118.638V85.4321C118.638 85.1473 118.642 84.8055 118.65 84.4067C118.659 83.9998 118.646 83.5767 118.614 83.1372C118.589 82.6978 118.536 82.2624 118.455 81.8311C118.382 81.3916 118.26 81.001 118.089 80.6592C117.926 80.3174 117.702 80.0407 117.417 79.8291C117.133 79.6094 116.775 79.4995 116.343 79.4995C115.977 79.4995 115.668 79.6012 115.416 79.8047C115.171 80.0081 114.964 80.2726 114.793 80.5981C114.63 80.9155 114.5 81.2777 114.402 81.6846C114.313 82.0833 114.244 82.4862 114.195 82.8931C114.154 83.2918 114.13 83.6743 114.122 84.0405C114.113 84.3986 114.109 84.6956 114.109 84.9316V91.9995H109.971V77.9004H111.558L113.072 81.1841C113.414 80.0448 113.951 79.1577 114.683 78.5229C115.424 77.88 116.404 77.5586 117.625 77.5586C118.724 77.5586 119.635 77.7865 120.359 78.2422C121.084 78.6979 121.653 79.4385 122.068 80.4639C122.304 80.0163 122.565 79.6134 122.85 79.2554C123.143 78.8973 123.464 78.5921 123.814 78.3398C124.172 78.0876 124.567 77.8963 124.998 77.7661C125.429 77.6278 125.905 77.5586 126.426 77.5586C127.387 77.5586 128.204 77.7173 128.88 78.0347C129.563 78.3439 130.121 78.7752 130.552 79.3286C130.984 79.882 131.297 80.5412 131.492 81.3062C131.688 82.063 131.785 82.8849 131.785 83.772Z" fill="#FDFDFD"/>
<path d="M92.1123 85.9692C92.1123 85.3263 92.1652 84.659 92.271 83.9673C92.3849 83.2756 92.5436 82.5838 92.7471 81.8921C92.9587 81.2004 93.2109 80.5168 93.5039 79.8413C93.7969 79.1659 94.1265 78.5189 94.4927 77.9004H97.5078C97.3044 78.5107 97.1213 79.1496 96.9585 79.8169C96.8039 80.4761 96.6696 81.1393 96.5557 81.8066C96.4499 82.4658 96.3644 83.1128 96.2993 83.7476C96.2424 84.3823 96.2139 84.9723 96.2139 85.5176C96.2139 85.835 96.2261 86.1768 96.2505 86.543C96.283 86.901 96.3359 87.2632 96.4092 87.6294C96.4824 87.9875 96.5841 88.3333 96.7144 88.667C96.8527 89.0007 97.0277 89.2977 97.2393 89.5581C97.4508 89.8104 97.7072 90.0138 98.0083 90.1685C98.3175 90.3149 98.6797 90.3882 99.0947 90.3882C99.5016 90.3882 99.8638 90.2987 100.181 90.1196C100.507 89.9325 100.792 89.6924 101.036 89.3994C101.28 89.0983 101.487 88.7565 101.658 88.374C101.829 87.9915 101.967 87.6009 102.073 87.2021C102.187 86.7952 102.269 86.4006 102.317 86.0181C102.374 85.6274 102.403 85.2775 102.403 84.9683V77.9004H106.529V91.9995H104.942L103.05 88.7158C102.814 89.2611 102.525 89.7575 102.183 90.2051C101.849 90.6445 101.467 91.0229 101.036 91.3403C100.604 91.6577 100.124 91.9019 99.5952 92.0728C99.0744 92.2437 98.5088 92.3291 97.8984 92.3291C96.9219 92.3291 96.0715 92.1704 95.3472 91.853C94.6229 91.5356 94.0207 91.0962 93.5405 90.5347C93.0604 89.9731 92.7023 89.3058 92.4663 88.5327C92.2303 87.7515 92.1123 86.897 92.1123 85.9692Z" fill="#FDFDFD"/>
<path d="M87.1196 92H82.2734V76.668H77.4883V74.4219H91.9048V76.668H87.1196V92Z" fill="#FDFDFD"/>
</svg>

<svg width="248" height="170" fill="none" xmlns="http://www.w3.org/2000/svg"><path d="M45.924 146.81l-.722-2.545H34.311c-17.588 0-30.811-11.956-30.811-25.53V50.647c0-13.574 13.223-25.53 30.811-25.53h11.005l.766-2.46C49.415 11.948 61.232 3.5 75.922 3.5h96.155c14.691 0 26.508 8.447 29.841 19.158l.766 2.46h11.005c17.588 0 30.811 11.955 30.811 25.53v68.087c0 13.574-13.223 25.53-30.811 25.53h-10.891l-.722 2.545c-3.106 10.961-15.059 19.69-29.999 19.69H75.923c-14.94 0-26.893-8.729-30-19.69z" fill="#7BB361" stroke="#F1C75F" stroke-width="7"/><path d="M171.739 79.145l-2.32 3.846a15.81 15.81 0 00-.378-1.099 5.956 5.956 0 00-.574-1.135 3.305 3.305 0 00-.818-.891 1.75 1.75 0 00-1.098-.367c-.383 0-.716.098-1.001.294a2.572 2.572 0 00-.708.768c-.196.31-.358.664-.488 1.063-.123.39-.22.789-.293 1.196-.066.399-.11.785-.135 1.16-.024.366-.036.683-.036.952v7.067h-4.139V77.9h1.587l1.673 3.284a9.116 9.116 0 01.781-1.453c.293-.447.631-.83 1.013-1.147a4.305 4.305 0 011.294-.757 4.763 4.763 0 011.648-.268c.317 0 .671.028 1.062.085.391.049.773.138 1.148.269.374.122.72.284 1.037.488.318.203.566.452.745.745zM156.309 92h-4.126V71.405h1.587l2.539 4.285v16.308zm-6.787-7.031a8.77 8.77 0 01-.464 2.88 6.943 6.943 0 01-1.343 2.344 6.314 6.314 0 01-2.148 1.563c-.846.382-1.807.574-2.881.574a4.978 4.978 0 01-2.917-.928 5.45 5.45 0 01-1.087-1.074 5.163 5.163 0 01-.732-1.392L136.119 92h-1.587V72.713h4.126v6.872c.488-.675 1.074-1.171 1.758-1.489a5.374 5.374 0 012.27-.476c1.074 0 2.035.191 2.881.574a6.314 6.314 0 012.148 1.562 6.81 6.81 0 011.343 2.332 8.77 8.77 0 01.464 2.88zm-4.187 0c0-.358-.02-.737-.061-1.135a8.812 8.812 0 00-.183-1.209 6.137 6.137 0 00-.379-1.147 3.493 3.493 0 00-.598-.965 2.636 2.636 0 00-.879-.671c-.341-.171-.744-.257-1.208-.257-.423 0-.802.09-1.135.269-.326.17-.615.403-.867.696a4.432 4.432 0 00-.623 1 7.35 7.35 0 00-.415 1.16 9.1 9.1 0 00-.305 2.259c0 .366.016.753.049 1.16.041.406.106.813.195 1.22.09.399.212.781.366 1.148.163.358.367.68.611.964.252.277.549.496.891.66.35.162.761.243 1.233.243.456 0 .854-.081 1.196-.244.35-.17.647-.395.891-.671a3.68 3.68 0 00.598-.977c.163-.374.289-.76.379-1.16a8.83 8.83 0 00.183-1.196c.041-.407.061-.79.061-1.147zm-13.55-1.197c0 .968-.114 1.977-.342 3.027a17.981 17.981 0 01-.964 3.076 16.878 16.878 0 01-1.477 2.82 12.042 12.042 0 01-1.929 2.307l-1.55-.842c.236-.423.452-.9.647-1.428.195-.529.374-1.087.537-1.672.163-.586.305-1.189.427-1.807.122-.619.224-1.233.305-1.843a24.524 24.524 0 00.257-3.418c0-.285-.008-.594-.025-.928a8.504 8.504 0 00-.109-1.001 5.164 5.164 0 00-.232-.952 2.73 2.73 0 00-.44-.818 1.877 1.877 0 00-.683-.574c-.269-.146-.595-.22-.977-.22a1.55 1.55 0 00-.964.306 2.578 2.578 0 00-.672.769 4.595 4.595 0 00-.451 1.074c-.106.399-.188.802-.245 1.208a15.64 15.64 0 00-.122 1.148 21.79 21.79 0 00-.024.928v7.067h-4.114v-6.567c0-.285.004-.627.012-1.025.009-.407-.004-.83-.036-1.27a10.19 10.19 0 00-.159-1.306 4.113 4.113 0 00-.366-1.172 2.184 2.184 0 00-.672-.83c-.284-.22-.642-.33-1.074-.33-.366 0-.675.102-.927.306a2.56 2.56 0 00-.623.793c-.163.317-.293.68-.391 1.087-.089.398-.158.801-.207 1.208-.041.399-.065.781-.073 1.147-.009.359-.013.656-.013.892v7.067h-4.138V77.9h1.587l1.514 3.284c.342-1.14.879-2.026 1.611-2.661.741-.643 1.721-.964 2.942-.964 1.099 0 2.01.228 2.734.683.725.456 1.294 1.197 1.709 2.222.236-.448.497-.85.782-1.209.293-.358.614-.663.964-.915a4.1 4.1 0 011.184-.574 4.655 4.655 0 011.428-.207c.961 0 1.778.158 2.454.476.683.309 1.241.74 1.672 1.294.432.553.745 1.212.94 1.977a9.82 9.82 0 01.293 2.466zM92.112 85.97c0-.644.053-1.311.159-2.003.114-.691.273-1.383.476-2.075.212-.692.464-1.375.757-2.05a17.26 17.26 0 01.989-1.942h3.015a24.21 24.21 0 00-.55 1.917c-.154.66-.288 1.322-.402 1.99a34.17 34.17 0 00-.257 1.94 19.908 19.908 0 00-.085 1.77c0 .318.012.66.037 1.026.032.358.085.72.158 1.086.073.358.175.704.305 1.038.139.334.314.63.525.891.212.252.468.456.77.61.308.147.67.22 1.086.22.407 0 .769-.09 1.086-.268.326-.188.611-.428.855-.72a4.6 4.6 0 00.622-1.026 7.71 7.71 0 00.415-1.172c.114-.407.196-.801.244-1.184.057-.39.086-.74.086-1.05V77.9h4.126V92h-1.587l-1.892-3.284a7.058 7.058 0 01-.867 1.49 5.65 5.65 0 01-1.147 1.134 5.024 5.024 0 01-1.44.733 5.45 5.45 0 01-1.698.256c-.976 0-1.826-.159-2.55-.476a4.951 4.951 0 01-1.808-1.318 5.517 5.517 0 01-1.074-2.002 8.832 8.832 0 01-.354-2.564zM87.12 92h-4.847V76.668h-4.785v-2.246h14.417v2.246H87.12V92z" fill="#FDFDFD"/></svg>
